img/circle-imgs/Group 8k.svg

<svg width="200" height="227" fill="none" xmlns="http://www.w3.org/2000/svg"><path fill="#2C6269" d="M81 100h100V0H81z"/><path fill-rule="evenodd" clip-rule="evenodd" d="M100 227C44.772 227 0 182.228 0 127S44.772 27 100 27s100 44.772 100 100-44.772 100-100 100Zm0-67c-18.225 0-33-14.775-33-33s14.775-33 33-33 33 14.775 33 33-14.775 33-33 33Z" fill="#012F34"/><path fill-rule="evenodd" clip-rule="evenodd" d="M81 56h100v4H81v-4Zm0 8h100v4H81v-4Zm100 8H81v4h100v-4ZM81 80h100v4H81v-4Zm100 8H81v4h100v-4ZM81 96h100v4H81v-4Z" fill="#79C8C7"/><path fill-rule="evenodd" clip-rule="evenodd" d="M181 100h-4v4h4v-4Zm-11 0h4v4h-4v-4Zm0 8h4v4h-4v-4Zm4 8h-4v4h4v-4Zm-4 8h4v4h-4v-4Zm4 8h-4v4h4v-4Zm-4 8h4v4h-4v-4Zm-3-40h-4v4h4v-4Zm0 8h-4v4h4v-4Zm-4 8h4v4h-4v-4Zm4 8h-4v4h4v-4Zm-4 8h4v4h-4v-4Zm4 8h-4v4h4v-4Zm14-32h-4v4h4v-4Zm-21-8h-4v4h4v-4Zm0 8h-4v4h4v-4Zm-4 8h4v4h-4v-4Zm4 8h-4v4h4v-4Zm-4 8h4v4h-4v-4Zm4 8h-4v4h4v-4Zm21-24h-4v4h4v-4Zm-28-16h-4v4h4v-4Zm0 8h-4v4h4v-4Zm-4 8h4v4h-4v-4Zm4 8h-4v4h4v-4Zm-4 8h4v4h-4v-4Zm4 8h-4v4h4v-4Zm28-16h-4v4h4v-4Zm-35-24h-4v4h4v-4Zm0 8h-4v4h4v-4Zm-4 8h4v4h-4v-4Zm4 8h-4v4h4v-4Zm-4 8h4v4h-4v-4Zm4 8h-4v4h4v-4Zm35-8h-4v4h4v-4Zm-42-32h-4v4h4v-4Zm0 8h-4v4h4v-4Zm-4 8h4v4h-4v-4Zm4 8h-4v4h4v-4Zm-4 8h4v4h-4v-4Zm4 8h-4v4h4v-4Zm42 0h-4v4h4v-4Zm-49-40h-4v4h4v-4Zm0 8h-4v4h4v-4Zm-4 8h4v4h-4v-4Zm4 8h-4v4h4v-4Zm-4 8h4v4h-4v-4Zm4 8h-4v4h4v-4Z" fill="#F67E7E"/></svg>

<svg width="200" height="227" viewBox="0 0 200 227" fill="none" xmlns="http://www.w3.org/2000/svg">
<g id="Group 8">
<rect id="Rectangle" width="100" height="100" transform="matrix(1 0 0 -1 81 100)" fill="#2C6269"/>
<path id="Combined Shape Copy" fill-rule="evenodd" clip-rule="evenodd" d="M100 227C44.7715 227 0 182.228 0 127C0 71.7715 44.7715 27 100 27C155.228 27 200 71.7715 200 127C200 182.228 155.228 227 100 227ZM100 160C81.7746 160 67 145.225 67 127C67 108.775 81.7746 94 100 94C118.225 94 133 108.775 133 127C133 145.225 118.225 160 100 160Z" fill="#012F34"/>
<path id="Combined Shape" fill-rule="evenodd" clip-rule="evenodd" d="M81 56H181V60H81V56ZM81 64H181V68H81V64ZM181 72H81V76H181V72ZM81 80H181V84H81V80ZM181 88H81V92H181V88ZM81 96H181V100H81V96Z" fill="#79C8C7"/>
<path id="Combined Shape_2" fill-rule="evenodd" clip-rule="evenodd" d="M181 100H177V104H181V100ZM170 100H174V104H170V100ZM170 108H174V112H170V108ZM174 116H170V120H174V116ZM170 124H174V128H170V124ZM174 132H170V136H174V132ZM170 140H174V144H170V140ZM167 100H163V104H167V100ZM167 108H163V112H167V108ZM163 116H167V120H163V116ZM167 124H163V128H167V124ZM163 132H167V136H163V132ZM167 140H163V144H167V140ZM181 108H177V112H181V108ZM160 100H156V104H160V100ZM160 108H156V112H160V108ZM156 116H160V120H156V116ZM160 124H156V128H160V124ZM156 132H160V136H156V132ZM160 140H156V144H160V140ZM181 116H177V120H181V116ZM153 100H149V104H153V100ZM153 108H149V112H153V108ZM149 116H153V120H149V116ZM153 124H149V128H153V124ZM149 132H153V136H149V132ZM153 140H149V144H153V140ZM181 124H177V128H181V124ZM146 100H142V104H146V100ZM146 108H142V112H146V108ZM142 116H146V120H142V116ZM146 124H142V128H146V124ZM142 132H146V136H142V132ZM146 140H142V144H146V140ZM181 132H177V136H181V132ZM139 100H135V104H139V100ZM139 108H135V112H139V108ZM135 116H139V120H135V116ZM139 124H135V128H139V124ZM135 132H139V136H135V132ZM139 140H135V144H139V140ZM181 140H177V144H181V140ZM132 100H128V104H132V100ZM132 108H128V112H132V108ZM128 116H132V120H128V116ZM132 124H128V128H132V124ZM128 132H132V136H128V132ZM132 140H128V144H132V140Z" fill="#F67E7E"/>
</g>
</svg>
